X:1
T:Title
%%score { ( 1 3 ) | 2 }
L:1/8
M:6/8
K:Eb
V:1 treble nm="Grand Piano"
V:3 treble 
V:2 bass 
V:1
 z3 z2[Q:1/4=95] [B,GB] | [B,GB][B,_G=A][=GB] [_Ac][B,GB][C_G=A] | [B,GB]3 [B,EG]2 [G,E] | %3
 [CE][CD][CE] [CF][CE]C | B,3- B,2 E | [B,DF][B,DF][DF] [DF][EG][FA] | G3 B2 G | FFF FG=A | %8
 [DB]3- [DB]2 [GB] | [GB][_G=A][=GB] [_Ac][GB][_G=A] | [GB]3 G2 E | [CE][CD][CE] [CF][CE]C | %12
 B,3- B,2 E | [DF][DF][DF] [DF][EG][FA] | G3 B2 G | EE[EF] [EG][EG][DF] | E6 | B3 .G3 | %18
 c-[Ac-][Ac] [GB]3 | A3 .F3 | B-[GB-][GB] .G3 | B-[GB-][GB] z E[Ge] | .A3 .G3 | %23
 [CFB][CFB][CFA] [B,EG][B,EG][A,DF] |[M:5/8] [G,E]-[G,E]- [G,E]3 |] %25
V:2
 z3 z2 E, | E,E,B, B,E,E, | E,3 E,2 E, | [A,,A,][A,,A,][A,,A,] [A,,A,][A,,A,][A,,A,] | %4
 [E,G,]3- [E,G,]2 [E,G,] | B,,A,,[B,,B,] [B,,B,][B,,B,][B,,B,] | [E,B,E]3 [E,G,E]2 [E,B,E] | %7
 [F,B,D][F,B,D][F,B,D] [F,=A,C][F,CE][F,B,E] | [B,,B,]3- [B,,B,]2 [E,B,] | %9
 [E,B,][E,B,][E,B,] [E,B,][E,B,][E,C] | [E,B,]3 [E,B,E]2 [E,G,] | %11
 [A,,A,][A,,A,][A,,A,] [A,,A,][A,,A,][A,,A,] | [E,G,]3- [E,G,]2 [E,G,] | %13
 [B,,B,][B,,B,][B,,B,] [B,,B,][B,,B,][B,,B,] | [E,B,E]3 [E,G,E]2 [E,G,E] | %15
 [C,G,][C,G,][C,=A,] [B,,B,][B,,B,][B,,_A,] | [E,G,]6 | [E,B,][E,B,][E,B,] [E,B,E][E,B,][E,B,] | %18
 [E,E][E,E][E,E] [E,E]3 | [B,,B,][B,,B,][B,,B,] [B,,B,]B,,B,, | [E,E][E,E][E,E] .[E,B,E]3 | %21
 [E,B,][E,B,][E,B,] [E,B,E][E,B,][E,B,] | [E,E][E,E][E,E] [E,E]E,E, | A,,A,,A,, B,,B,,B,, | %24
[M:5/8] E,-E,- E,3 |] %25
V:3
 x6 | x6 | x6 | x6 | x6 | x6 | x6 | x6 | x6 | x6 | x6 | x6 | x6 | x6 | x6 | x6 | x6 | GGG z E[Ge] | %18
 .A3 z3 | FFF D[B,D][DAc] | .G3 z3 | .G3 .G3 | c-[Ac-][Ac] B-[EGB][B,EG] | x6 |[M:5/8] x5 |] %25

